X:1
T:Title
%%score { ( 1 3 ) | 2 }
L:1/8
M:3/4
K:G
V:1 treble nm="Grand Piano"
V:3 treble 
V:2 bass 
V:1
 z2[Q:1/4=100] D | B2 B A2 G | G2 F F3 | [Fc][Fc] [Fc] [FB]2 [FA] |[M:5/8] B-B- B3 |[M:1/8] D | %6
[M:3/4] d2 d c2 B | z2 z [Ec]3 | BD c B2 A | [B,G]6 | d4 z2 | c6 | c4 z2 | B6 | d2 d c2 B | %15
 z2 z [Ec]3 | BD c B2 A |[M:5/8] [B,G]-[B,G]- [B,G]3 |] %18
V:2
 z2 [G,B,] | [G,D]2 [G,D] [G,CD]2 [G,B,D] | [A,CD]2 [A,CD] [A,CD]3 | %3
 [D,D][D,D] [D,D] [D,D]2 [D,D] |[M:5/8][K:treble] [G,DG]-[G,DG]- [G,DG]3 |[M:1/8] [G,B,] | %6
[M:3/4] [G,B,G]2 [G,B,G] [G,EG]2 [G,DG] | [C,C]2 [B,,^G,] .[A,,A,]3 | %8
 [D,G,D][D,G,B,] [D,G,E] [D,F,D]2 [D,F,C] | [G,,G,]6 | [G,B,G][G,D] [G,C][G,B,] z2 | %11
 [D,A,][D,F,] [D,G,] .[D,A,]3 | [D,A,][D,^G,] [D,A,][D,F,] z2 | %13
 [G,,G,][G,,G,] [G,,G,] [G,,G,]2 [G,B,] | [G,B,G]2 [G,B,G] [G,EG]2 [G,DG] | %15
 [C,C]2 [B,,^G,] .[A,,A,]3 | [D,G,D][D,G,B,] [D,G,E] [D,F,D]2 [D,F,C] | %17
[M:5/8] [G,,G,]-[G,,G,]- [G,,G,]3 |] %18
V:3
 x3 | x6 | x6 | x6 |[M:5/8] x5 |[M:1/8] x |[M:3/4] x6 | [EA]2 .[EB]2 z E, | x6 | x6 | z B AG BG | %11
 FD E .F3 | F=F ^FD BA | GF E D2 D | x6 | [EA]2 .[EB]2 z E, | x6 |[M:5/8] x5 |] %18

